packages/foundations/assets/icons/functional/images/audio & video/volume_down_28.svg

<svg width="28" height="28" viewBox="0 0 28 28" fill="none" xmlns="http://www.w3.org/2000/svg">
<g clip-path="url(#clip0_184_384)">
<path fill-rule="evenodd" clip-rule="evenodd" d="M15.4765 5.25001C15.7082 5.25132 15.93 5.34393 16.0938 5.50774C16.2576 5.67155 16.3502 5.89335 16.3515 6.12501V21.875C16.3502 22.1067 16.2576 22.3285 16.0938 22.4923C15.93 22.6561 15.7082 22.7487 15.4765 22.75C15.2772 22.7536 15.0832 22.6858 14.9295 22.559L9.8985 18.375H6.7265C5.3325 18.375 4.1015 17.281 4.1015 15.915V12.25C4.10177 11.5539 4.37841 10.8864 4.87064 10.3941C5.36286 9.90192 6.03039 9.62528 6.7265 9.62501H9.8985L14.9295 5.44101C15.0832 5.31418 15.2772 5.24644 15.4765 5.25001ZM14.6015 7.98401L10.7735 11.184C10.6165 11.3049 10.4246 11.3719 10.2265 11.375H6.7265C6.61119 11.3735 6.49674 11.3952 6.38991 11.4386C6.28309 11.4821 6.18604 11.5465 6.10449 11.628C6.02294 11.7095 5.95855 11.8066 5.9151 11.9134C5.87165 12.0203 5.85002 12.1347 5.8515 12.25V15.75C5.8515 16.242 6.2345 16.625 6.7265 16.625H10.2265C10.4246 16.6281 10.6165 16.6951 10.7735 16.816L14.6015 20.016V7.98401ZM20.4255 8.31301C22.6405 9.57001 23.8985 11.566 23.8985 14.027C23.8985 16.461 22.6405 18.484 20.4255 19.742C20.3018 19.8163 20.1598 19.8544 20.0155 19.852C19.7909 19.851 19.5758 19.7613 19.417 19.6025C19.2582 19.4437 19.1686 19.2286 19.1675 19.004C19.1675 18.704 19.3045 18.43 19.6055 18.266C21.2735 17.309 22.2035 15.832 22.2035 14.027C22.2035 12.223 21.2735 10.747 19.6055 9.78901C19.4728 9.7169 19.362 9.61025 19.2849 9.48034C19.2078 9.35042 19.1672 9.20208 19.1675 9.05101C19.1675 8.66801 19.4685 8.17601 20.0155 8.17601C20.1525 8.17601 20.2885 8.23101 20.4255 8.31301ZM17.9925 15.723C17.9925 14.875 18.8395 14.875 18.8395 14.027C18.8125 13.18 18.0195 13.18 17.9925 12.332C17.9645 11.895 18.4025 11.484 18.8395 11.484C19.6875 11.484 20.5355 12.742 20.5355 14.027C20.5355 15.313 19.6875 16.57 18.8395 16.57C18.4025 16.57 17.9925 16.16 17.9925 15.723Z" fill="#1A1C1F"/>
</g>
<defs>
<clipPath id="clip0_184_384">
<rect width="28" height="28" fill="white"/>
</clipPath>
</defs>
</svg>

<svg xmlns="http://www.w3.org/2000/svg" width="28" height="28" fill="none"><g clip-path="url(#a)"><path fill="#1A1C1F" fill-rule="evenodd" d="M15.477 5.25a.88.88 0 0 1 .875.875v15.75a.88.88 0 0 1-.876.875.84.84 0 0 1-.546-.191l-5.031-4.184H6.727c-1.395 0-2.626-1.094-2.626-2.46V12.25a2.626 2.626 0 0 1 2.625-2.625H9.9l5.03-4.184a.84.84 0 0 1 .547-.191M14.6 7.984l-3.828 3.2a.92.92 0 0 1-.546.191h-3.5a.865.865 0 0 0-.876.875v3.5c0 .492.383.875.875.875h3.5a.92.92 0 0 1 .547.191l3.829 3.2zm5.824.329c2.215 1.257 3.473 3.253 3.473 5.714 0 2.434-1.258 4.457-3.472 5.715a.77.77 0 0 1-.41.11.85.85 0 0 1-.848-.848c0-.3.137-.574.438-.738 1.667-.957 2.597-2.434 2.597-4.239s-.93-3.28-2.597-4.238a.84.84 0 0 1-.439-.738c0-.383.301-.875.848-.875.137 0 .273.055.41.137m-2.433 7.41c0-.848.848-.848.848-1.696-.027-.847-.82-.847-.848-1.695-.027-.437.41-.848.848-.848.848 0 1.695 1.258 1.695 2.543s-.848 2.543-1.695 2.543c-.437 0-.848-.41-.848-.847" clip-rule="evenodd"/></g><defs><clipPath id="a"><path fill="#fff" d="M0 0h28v28H0z"/></clipPath></defs></svg>
